img/icons/instagram.svg

<svg width="20" height="20" viewBox="0 0 20 20" fill="none" xmlns="http://www.w3.org/2000/svg">
<path fill-rule="evenodd" clip-rule="evenodd" d="M6.22148 0.888374C7.19898 0.843374 7.51065 0.833374 10.0007 0.833374C12.4907 0.833374 12.8023 0.844207 13.779 0.888374C14.7557 0.932541 15.4223 1.08837 16.0056 1.31421C16.6165 1.54504 17.1706 1.90587 17.629 2.37254C18.0956 2.83004 18.4557 3.38337 18.6856 3.99504C18.9123 4.57837 19.0673 5.24504 19.1123 6.22004C19.1573 7.19921 19.1673 7.51087 19.1673 10C19.1673 12.49 19.1565 12.8017 19.1123 13.7792C19.0681 14.7542 18.9123 15.4209 18.6856 16.0042C18.4556 16.616 18.095 17.1702 17.629 17.6284C17.1706 18.095 16.6165 18.455 16.0056 18.685C15.4223 18.9117 14.7556 19.0667 13.7806 19.1117C12.8023 19.1567 12.4907 19.1667 10.0007 19.1667C7.51065 19.1667 7.19898 19.1559 6.22148 19.1117C5.24648 19.0675 4.57982 18.9117 3.99648 18.685C3.38475 18.455 2.8305 18.0944 2.37232 17.6284C1.90597 17.1706 1.54508 16.6166 1.31482 16.005C1.08898 15.4217 0.933984 14.755 0.888984 13.78C0.843984 12.8009 0.833984 12.4892 0.833984 10C0.833984 7.51004 0.844818 7.19837 0.888984 6.22171C0.933151 5.24504 1.08898 4.57837 1.31482 3.99504C1.54542 3.38344 1.90658 2.82947 2.37315 2.37171C2.83068 1.90546 3.38438 1.54458 3.99565 1.31421C4.57898 1.08837 5.24565 0.933374 6.22065 0.888374H6.22148ZM13.7048 2.53837C12.7381 2.49421 12.4481 2.48504 10.0007 2.48504C7.55315 2.48504 7.26315 2.49421 6.29648 2.53837C5.40232 2.57921 4.91732 2.72837 4.59398 2.85421C4.16648 3.02087 3.86065 3.21837 3.53982 3.53921C3.23569 3.83508 3.00163 4.19528 2.85482 4.59337C2.72898 4.91671 2.57982 5.40171 2.53898 6.29587C2.49482 7.26254 2.48565 7.55254 2.48565 10C2.48565 12.4475 2.49482 12.7375 2.53898 13.7042C2.57982 14.5984 2.72898 15.0834 2.85482 15.4067C3.00148 15.8042 3.23565 16.165 3.53982 16.4609C3.83565 16.765 4.19648 16.9992 4.59398 17.1459C4.91732 17.2717 5.40232 17.4209 6.29648 17.4617C7.26315 17.5059 7.55232 17.515 10.0007 17.515C12.449 17.515 12.7381 17.5059 13.7048 17.4617C14.599 17.4209 15.084 17.2717 15.4073 17.1459C15.8348 16.9792 16.1406 16.7817 16.4615 16.4609C16.7656 16.165 16.9998 15.8042 17.1465 15.4067C17.2723 15.0834 17.4215 14.5984 17.4623 13.7042C17.5065 12.7375 17.5156 12.4475 17.5156 10C17.5156 7.55254 17.5065 7.26254 17.4623 6.29587C17.4215 5.40171 17.2723 4.91671 17.1465 4.59337C16.9798 4.16587 16.7823 3.86004 16.4615 3.53921C16.1656 3.2351 15.8054 3.00105 15.4073 2.85421C15.084 2.72837 14.599 2.57921 13.7048 2.53837ZM8.82982 12.8259C9.4837 13.0981 10.2118 13.1348 10.8898 12.9298C11.5677 12.7248 12.1535 12.2908 12.547 11.7019C12.9405 11.113 13.1174 10.4058 13.0474 9.70096C12.9773 8.99616 12.6648 8.33752 12.1631 7.83754C11.8433 7.51794 11.4567 7.27322 11.0309 7.121C10.6052 6.96877 10.151 6.91284 9.70106 6.95722C9.25112 7.0016 8.81661 7.14519 8.42882 7.37765C8.04103 7.61011 7.7096 7.92566 7.4584 8.30158C7.2072 8.67751 7.04247 9.10445 6.97608 9.55167C6.90969 9.9989 6.94328 10.4553 7.07443 10.888C7.20559 11.3207 7.43105 11.7189 7.73458 12.054C8.03812 12.3891 8.41217 12.6527 8.82982 12.8259ZM6.66898 6.66837C7.1065 6.23085 7.62592 5.88379 8.19757 5.64701C8.76921 5.41022 9.3819 5.28835 10.0007 5.28835C10.6194 5.28835 11.2321 5.41022 11.8037 5.64701C12.3754 5.88379 12.8948 6.23085 13.3323 6.66837C13.7698 7.10589 14.1169 7.62531 14.3537 8.19696C14.5905 8.7686 14.7123 9.38129 14.7123 10C14.7123 10.6188 14.5905 11.2315 14.3537 11.8031C14.1169 12.3748 13.7698 12.8942 13.3323 13.3317C12.4487 14.2153 11.2503 14.7117 10.0007 14.7117C8.75103 14.7117 7.5526 14.2153 6.66898 13.3317C5.78537 12.4481 5.28896 11.2497 5.28896 10C5.28896 8.75042 5.78537 7.55199 6.66898 6.66837ZM15.7573 5.99004C15.8657 5.88776 15.9525 5.76477 16.0126 5.62835C16.0726 5.49193 16.1047 5.34485 16.1068 5.19582C16.109 5.04678 16.0813 4.89883 16.0252 4.76072C15.9692 4.6226 15.886 4.49713 15.7806 4.39174C15.6752 4.28635 15.5498 4.20317 15.4116 4.14714C15.2735 4.09111 15.1256 4.06335 14.9765 4.06553C14.8275 4.0677 14.6804 4.09975 14.544 4.15979C14.4076 4.21982 14.2846 4.30662 14.1823 4.41504C13.9834 4.6259 13.8745 4.90597 13.8787 5.19582C13.883 5.48566 14 5.76244 14.2049 5.96741C14.4099 6.17238 14.6867 6.2894 14.9765 6.29362C15.2664 6.29785 15.5465 6.18895 15.7573 5.99004Z" fill="#545454"/>
</svg>

<svg width="20" height="20" fill="none" xmlns="http://www.w3.org/2000/svg"><path fill-rule="evenodd" clip-rule="evenodd" d="M6.221.888C7.2.843 7.511.833 10.001.833c2.49 0 2.801.011 3.778.055.977.045 1.643.2 2.227.426a4.51 4.51 0 011.623 1.059c.467.457.827 1.01 1.057 1.622.226.583.381 1.25.426 2.225.045.98.055 1.29.055 3.78 0 2.49-.01 2.802-.055 3.78-.044.974-.2 1.64-.426 2.224a4.497 4.497 0 01-1.057 1.624 4.496 4.496 0 01-1.623 1.057c-.584.227-1.25.382-2.225.427-.979.045-1.29.055-3.78.055-2.49 0-2.802-.011-3.78-.055-.975-.044-1.641-.2-2.225-.427a4.498 4.498 0 01-1.624-1.057 4.494 4.494 0 01-1.057-1.623c-.226-.583-.381-1.25-.426-2.225C.844 12.8.834 12.49.834 10c0-2.49.01-2.802.055-3.778.044-.977.2-1.644.426-2.227a4.497 4.497 0 011.058-1.623 4.493 4.493 0 011.623-1.058c.583-.226 1.25-.38 2.225-.426zm7.484 1.65c-.967-.044-1.257-.053-3.704-.053-2.448 0-2.738.01-3.705.053-.894.041-1.379.19-1.702.316a2.846 2.846 0 00-1.054.685 2.843 2.843 0 00-.685 1.054c-.126.324-.275.809-.316 1.703-.044.967-.053 1.257-.053 3.704s.009 2.738.053 3.704c.04.894.19 1.38.316 1.703.146.397.38.758.685 1.054.296.304.656.538 1.054.685.323.126.808.275 1.702.316.967.044 1.256.053 3.705.053 2.448 0 2.737-.01 3.704-.053.894-.041 1.379-.19 1.702-.316a2.848 2.848 0 001.055-.685c.304-.296.538-.657.684-1.054.126-.324.276-.809.316-1.703.044-.966.054-1.257.054-3.704s-.01-2.737-.054-3.704c-.04-.894-.19-1.38-.316-1.703a2.847 2.847 0 00-.684-1.054 2.844 2.844 0 00-1.055-.685c-.323-.126-.808-.275-1.702-.316zM8.83 12.826a3.058 3.058 0 102.2-5.705 3.058 3.058 0 00-2.2 5.705zM6.669 6.668a4.712 4.712 0 116.663 6.664A4.712 4.712 0 016.67 6.668zm9.088-.678a1.116 1.116 0 00-.78-1.924 1.114 1.114 0 10.78 1.924z" fill="#545454"/></svg>
